static/logos/cloudflare-glyph-color.svg

<svg width="50" height="23" viewBox="0 0 50 23" fill="none" xmlns="http://www.w3.org/2000/svg">
<g clip-path="url(#clip0_1_3223)">
<path d="M34.1417 22.1742L34.3962 21.2943C34.6995 20.2476 34.5867 19.2799 34.0779 18.569C33.6095 17.9142 32.8293 17.5285 31.8815 17.4837L13.9324 17.2566C13.8767 17.2555 13.822 17.2413 13.7729 17.2152C13.7236 17.1891 13.6813 17.1518 13.6492 17.1063C13.6178 17.0592 13.5978 17.0055 13.5907 16.9494C13.5838 16.8932 13.59 16.8362 13.6088 16.7829C13.6396 16.695 13.6955 16.618 13.7696 16.5615C13.8438 16.505 13.9327 16.4714 14.0258 16.4648L32.1412 16.2353C34.2902 16.1366 36.6168 14.3943 37.4313 12.2695L38.4644 9.57206C38.5068 9.45799 38.5165 9.33441 38.4924 9.21517C37.3194 3.94272 32.6104 0 26.9801 0C21.7926 0 17.3879 3.34576 15.808 7.99618C14.7403 7.19542 13.4092 6.8273 12.0815 6.96554C9.59276 7.21249 7.59172 9.21476 7.34535 11.7021C7.28221 12.3231 7.3284 12.9505 7.48221 13.5556C3.41663 13.674 0.15625 17.0024 0.15625 21.0938C0.156769 21.459 0.183756 21.8237 0.237043 22.1851C0.248807 22.2685 0.290159 22.345 0.353653 22.4005C0.417148 22.4561 0.498638 22.4869 0.582894 22.4874L33.7203 22.4915C33.7234 22.4917 33.7265 22.4917 33.7296 22.4915C33.8234 22.4898 33.914 22.4581 33.9883 22.401C34.0625 22.3438 34.1163 22.2644 34.1417 22.1742Z" fill="#F6821F"/>
<path d="M40.1193 9.7677C39.953 9.7677 39.7873 9.77189 39.6222 9.78023C39.5956 9.78213 39.5695 9.78786 39.5445 9.79722C39.5013 9.81199 39.4622 9.83703 39.4307 9.87017C39.3992 9.90332 39.3762 9.94362 39.3638 9.98758L38.658 12.4235C38.3546 13.4703 38.4674 14.4371 38.9767 15.1481C39.4447 15.8036 40.225 16.1884 41.1726 16.2333L44.999 16.4628C45.0529 16.4646 45.1054 16.4789 45.1529 16.5046C45.2001 16.5303 45.2407 16.5666 45.2715 16.6108C45.3034 16.6581 45.3236 16.7121 45.3305 16.7686C45.3376 16.8252 45.3312 16.8825 45.312 16.9361C45.2812 17.0239 45.2253 17.1007 45.1515 17.1572C45.0776 17.2137 44.9887 17.2474 44.8959 17.2542L40.9202 17.4838C38.7615 17.5833 36.4354 19.3248 35.6215 21.4495L35.3343 22.1997C35.3224 22.231 35.3179 22.2648 35.3215 22.2982C35.3252 22.3315 35.3366 22.3637 35.3551 22.3917C35.3736 22.4198 35.3984 22.4431 35.4276 22.4597C35.4568 22.4762 35.4897 22.4857 35.5233 22.4871C35.5269 22.4871 35.5302 22.4871 35.5338 22.4871H49.2141C49.2937 22.4878 49.3712 22.4625 49.435 22.4149C49.4987 22.3674 49.5452 22.3004 49.5672 22.2239C49.8096 21.3597 49.9321 20.4665 49.9312 19.5689C49.9297 14.1562 45.5373 9.7677 40.1193 9.7677Z" fill="#FBAD41"/>
</g>
<defs>
<clipPath id="clip0_1_3223">
<rect width="50" height="22.6644" fill="white"/>
</clipPath>
</defs>
</svg>

<svg xmlns="http://www.w3.org/2000/svg" width="139.13" height="64" fill="none" viewBox="0 0 50 23"><g clip-path="url(#a)"><path fill="#F6821F" d="m34.142 22.174.254-.88c.303-1.046.19-2.014-.318-2.725-.469-.655-1.249-1.04-2.197-1.085l-17.949-.227a.355.355 0 0 1-.283-.15.366.366 0 0 1-.04-.324.477.477 0 0 1 .417-.318l18.115-.23c2.15-.098 4.476-1.84 5.29-3.965l1.033-2.698a.653.653 0 0 0 .028-.357C37.32 3.943 32.61 0 26.98 0c-5.187 0-9.592 3.346-11.172 7.996a5.297 5.297 0 0 0-3.726-1.03 5.312 5.312 0 0 0-4.6 6.59c-4.065.118-7.326 3.446-7.326 7.538 0 .365.028.73.081 1.091a.351.351 0 0 0 .346.302l33.137.005h.01a.437.437 0 0 0 .412-.318Z"/><path fill="#FBAD41" d="M40.12 9.768c-.167 0-.333.004-.498.012a.278.278 0 0 0-.078.017.284.284 0 0 0-.18.19l-.706 2.437c-.303 1.046-.19 2.013.319 2.724.468.656 1.248 1.04 2.196 1.085l3.826.23a.347.347 0 0 1 .313.473.478.478 0 0 1-.416.318l-3.976.23c-2.159.1-4.485 1.84-5.299 3.965l-.287.75a.213.213 0 0 0 .094.26c.029.017.062.027.095.028H49.214a.364.364 0 0 0 .353-.263 9.794 9.794 0 0 0 .364-2.655c-.001-5.413-4.394-9.801-9.812-9.801Z"/></g><defs><clipPath id="a"><path fill="#fff" d="M0 0h50v22.664H0z"/></clipPath></defs></svg>
